X:33
%%etbk:tnset id:12,pos:1,rep:3x,ant:
%%etbk:wsite http://www.thesession.org/tunes/display/479
%%etbk:skill ?
%%etbk:pldat 2013-11-21T18:06,2013-11-18T18:37,2013-11-03T14:57,2013-09-29T14:44,2013-09-17T10:36,2013-08-28T16:12,2013-05-21T15:52,2013-05-07T19:45,2013-05-06T18:19
T: Corner House, The
Z: Piano Box Version by Martin Fleischmann
H: Created 2013-02-19 /  Last Modified 2013-02-19
M: 4/4
L: 1/8
R: reel
K: Ador
|: !1!E!3!AA!2!G !1!ABcd | !5!e2d!2!B !3!c!1!A!3!A!2!G | !1!E!2!GG!1!F !2!G2AB | !5!cA!4!BG !3!A!2!G!1!E!2!D | 
!1!E!3!AAG !1!ABc!4!d | !3!e2!5!a!4!f !5!g!3!e!2!d!1!B | !2!dd!1!Bd !3!efge |1 !2!d!1!B!2!G!4!B !3!A2AG :|2 !2!d!1!B!2!G!4!B !3!A2!1!B!2!d ||
|: !3!e!5!a!3!ag !3!a2ga | !4!bgab !2!g!1!e!2!d!1!B | !2!ddBd !3!edBd | !3!e!4!g !3!f!5!a !2!g!2!d!1!Bd | 
!3!e!5!a!3!ag !3!a2ga | !4!bgab !2!g!1!e!2!d!1!B | !2!ddBd !3!efge |1 !2!d!1!B!2!G!4!B !3!A2!1!B!2!d :|2 !2!d!1!B!2!G!1!B !3!A2AG ||
